X: 2
T: The Green Gowned Lass
R: reel
M: 4/4
L: 1/8
K: Fmaj
=B- | c2 AF GFAF | GFAc ADDc | c2 AF GAFA | cdfg agfd || c/c/c AF GFAF | GFAc ADDc | c2 AF GAFA | cdfg affd ||| fgaf gfdf | g4 g3 f- | fgaf gafd | cdfg af{a}fe || fgaf gfdf |g4 g3 f- | fgaf gafd | cdfg agfd ||| c2 AF GFAF | GFAc ADDc | c2 AF GAFA | cdfg agfd || c/c/c AF GFAF | GFAc ADDc | c2 AF GAFA | cdfg affd ||| fgaf gfdf | g4 g3 f- | fgaf gafd | cdfg af{a}fe ||fgaf gfdf | {a}g4 gfga|fg a/g/f gafd|cdfg agfd||


Tune 1015	Setting 1015

